pix/edit.svg

<svg xmlns="http://www.w3.org/2000/svg" viewBox="0 0 100 100" style="enable-background:new 0 0 100 100"><path d="m72.8 41.8l-14.6-14.5 2.9-2.9 14.6 14.6c0 0-2.9 2.8-2.9 2.8m-39.2 21.7l-5.8-5.8 27.6-27.6 5.8 5.8-27.6 27.6m-15.1 15.3c-.3.8-.1 1.6.5 2.2s1.4.8 2.2.5l17.6-6.8-13.5-13.5c0 0-6.8 17.6-6.8 17.6m61.5-44.3c4-4 4-10.5 0-14.5s-10.5-4-14.5 0l-1.5 1.4 14.6 14.6 1.4-1.5m-15.9 4.4l5.8 5.8-27.6 27.6-5.8-5.8c0 0 27.6-27.6 27.6-27.6" style="fill:#999"/></svg>

<?xml version="1.0" encoding="utf-8"?>
<!-- Generator: Adobe Illustrator 20.1.0, SVG Export Plug-In . SVG Version: 6.00 Build 0)  -->
<svg version="1.1" id="Layer_1" xmlns="http://www.w3.org/2000/svg" xmlns:xlink="http://www.w3.org/1999/xlink" x="0px" y="0px"
	 viewBox="0 0 100 100" style="enable-background:new 0 0 100 100;" xml:space="preserve">
<style type="text/css">
	.st0{fill:#999999;}
</style>
<path id="Layer_1_1_" class="st0" d="M72.8,41.8L58.2,27.3l2.9-2.9L75.7,39C75.7,39,72.8,41.8,72.8,41.8z M33.6,63.5l-5.8-5.8
	l27.6-27.6l5.8,5.8L33.6,63.5z M18.5,78.8c-0.3,0.8-0.1,1.6,0.5,2.2s1.4,0.8,2.2,0.5l17.6-6.8L25.3,61.2
	C25.3,61.2,18.5,78.8,18.5,78.8z M80,34.5c4-4,4-10.5,0-14.5s-10.5-4-14.5,0L64,21.4L78.6,36L80,34.5z M64.1,38.9l5.8,5.8L42.3,72.3
	l-5.8-5.8C36.5,66.5,64.1,38.9,64.1,38.9z"/>
</svg>
